images/icons/instagram.svg

<svg width="52" height="52" viewBox="0 0 52 52" fill="none" xmlns="http://www.w3.org/2000/svg">
<path d="M15.3091 3.19201C18.0864 3.06401 18.9277 3.03735 26.0304 3.03735V3.07068C33.0651 3.07068 33.9691 3.07068 36.7917 3.22668C38.5557 3.24802 40.3304 3.57735 42.0237 4.20401C44.6211 5.20401 46.6744 7.25868 47.6717 9.84401C48.3157 11.544 48.6571 13.3213 48.6877 15.1267C48.8157 17.9067 48.8424 18.748 48.8424 25.8507C48.8424 32.8853 48.8424 33.7893 48.6851 36.612C48.6677 38.372 48.3397 40.1467 47.7117 41.8427C46.7104 44.4413 44.6571 46.4947 42.0704 47.492C40.3624 48.1373 38.5757 48.4787 36.7504 48.508C33.9731 48.636 33.1317 48.6627 26.0304 48.6627C18.9944 48.6627 18.0904 48.6627 15.2677 48.5053C13.5064 48.4867 11.7317 48.16 10.0371 47.5307C7.43839 46.5293 5.38506 44.4733 4.38773 41.888C3.74239 40.1827 3.40106 38.3947 3.37173 36.5707C3.24373 33.7933 3.21706 32.952 3.21706 25.8507C3.21706 18.8147 3.21706 17.9107 3.37439 15.0867C3.39439 13.3253 3.72373 11.5507 4.35039 9.85601C5.35173 7.25868 7.40506 5.20401 9.99173 4.20802C11.6971 3.56268 13.4851 3.22135 15.3091 3.19201ZM1.91839 8.87601C1.19439 10.8187 0.80506 12.8613 0.766393 14.9427C0.622393 17.7747 0.590393 18.7067 0.590393 25.8507C0.590393 32.9987 0.590392 33.9173 0.749059 36.7187C0.793059 38.84 1.18373 40.8853 1.91306 42.84C3.17706 46.1 5.78373 48.7 9.05839 49.964C10.9971 50.6853 13.0397 51.0747 15.1224 51.1133C17.8997 51.24 18.7317 51.2773 26.0304 51.2773C33.1811 51.2773 34.0997 51.2773 36.8957 51.116C39.0197 51.0747 41.0651 50.684 43.0184 49.9533C46.2811 48.6893 48.8864 46.088 50.1504 42.8133C50.8704 40.8813 51.2571 38.84 51.2957 36.7573C51.4264 33.8693 51.4571 32.924 51.4571 25.8507C51.4571 18.7 51.4571 17.7827 51.2971 14.9813C51.2544 12.8587 50.8637 10.8133 50.1331 8.85868C48.8717 5.60402 46.2704 3.00135 43.0024 1.73335C41.0651 1.01468 39.0224 0.625347 36.9371 0.585346C34.1077 0.44268 33.1771 0.410683 26.0304 0.410683L24.9717 0.384014C18.7797 0.384014 17.8171 0.390682 15.1624 0.542683C13.0397 0.58535 10.9944 0.977348 9.03973 1.70668C5.77439 2.97735 3.17306 5.59068 1.91839 8.87601Z" fill="white"/>
<path d="M26.0305 35.7433L24.9718 35.6819C20.0118 35.1526 16.1358 30.9406 16.1358 25.842C16.1358 20.3886 20.5745 15.9499 26.0305 15.9499C31.4852 15.9499 35.9238 20.3886 35.9238 25.842C35.9238 31.3046 31.4852 35.7433 26.0305 35.7433ZM26.0305 13.302C19.1131 13.302 13.4825 18.9326 13.4825 25.8513C13.4825 32.7699 19.1131 38.3979 26.0305 38.3979C32.9492 38.3979 38.5771 32.7699 38.5771 25.8513C38.5771 18.9326 32.9492 13.302 26.0305 13.302Z" fill="white"/>
<path d="M40.1697 9.5891C39.0017 9.5891 38.0497 10.5411 38.0497 11.7091C38.0497 12.8784 39.0017 13.8291 40.1697 13.8291C41.3391 13.8291 42.2897 12.8784 42.2897 11.7091C42.2897 10.5411 41.3391 9.5891 40.1697 9.5891Z" fill="white"/>
</svg>

<svg width="52" height="52" fill="none" xmlns="http://www.w3.org/2000/svg"><path d="M15.31 3.192c2.776-.128 3.618-.155 10.72-.155v.034c7.035 0 7.94 0 10.762.156a15.63 15.63 0 015.232.977 9.85 9.85 0 015.648 5.64c.644 1.7.985 3.477 1.016 5.283.128 2.78.154 3.621.154 10.724 0 7.034 0 7.938-.157 10.761a15.532 15.532 0 01-.973 5.23 9.851 9.851 0 01-5.642 5.65 15.711 15.711 0 01-5.32 1.016c-2.777.128-3.618.155-10.72.155-7.036 0-7.94 0-10.762-.158a15.518 15.518 0 01-5.23-.974 9.858 9.858 0 01-5.65-5.643 15.69 15.69 0 01-1.016-5.317c-.128-2.778-.155-3.619-.155-10.72 0-7.036 0-7.94.157-10.764.02-1.762.35-3.536.976-5.231a9.85 9.85 0 015.642-5.648 15.69 15.69 0 015.317-1.016zM1.917 8.876a18.31 18.31 0 00-1.152 6.067C.622 17.775.59 18.707.59 25.85c0 7.148 0 8.066.16 10.868a18.505 18.505 0 001.163 6.121 12.51 12.51 0 007.145 7.124 18.333 18.333 0 006.064 1.15c2.778.126 3.61.163 10.908.163 7.151 0 8.07 0 10.866-.161a18.389 18.389 0 006.122-1.163 12.506 12.506 0 007.132-7.14 18.284 18.284 0 001.146-6.056c.13-2.888.161-3.833.161-10.906 0-7.151 0-8.068-.16-10.87a18.44 18.44 0 00-1.164-6.122 12.525 12.525 0 00-7.13-7.126A18.423 18.423 0 0036.936.585C34.107.443 33.177.411 26.03.411L24.972.384c-6.192 0-7.155.007-9.81.159A18.472 18.472 0 009.04 1.707a12.492 12.492 0 00-7.122 7.169z" fill="#fff"/><path d="M26.03 35.743l-1.058-.061c-4.96-.53-8.836-4.741-8.836-9.84 0-5.453 4.439-9.892 9.895-9.892 5.454 0 9.893 4.439 9.893 9.892 0 5.463-4.439 9.901-9.893 9.901zm0-22.441c-6.917 0-12.548 5.63-12.548 12.55 0 6.918 5.631 12.546 12.549 12.546 6.918 0 12.546-5.628 12.546-12.547 0-6.918-5.628-12.549-12.546-12.549zM40.17 9.59c-1.168 0-2.12.951-2.12 2.12 0 1.168.952 2.12 2.12 2.12 1.17 0 2.12-.952 2.12-2.12 0-1.169-.95-2.12-2.12-2.12z" fill="#fff"/></svg>
